icons/general-component.svg

<svg fill="none" viewBox="0 0 24 24"><path stroke="currentColor" stroke-width="2" d="M11.3 2.3a1 1 0 0 1 1.4 0l2.7 2.7a1 1 0 0 1 0 1.3l-2.7 2.7a1 1 0 0 1-1.4 0l-2.7-2.7a1 1 0 0 1 0-1.3zm6.4 6.3a1 1 0 0 1 1.3 0l2.7 2.7a1 1 0 0 1 0 1.4l-2.7 2.7a1 1 0 0 1-1.3 0l-2.7-2.7a1 1 0 0 1 0-1.4zm-12.7 0a1 1 0 0 1 1.3 0l2.7 2.7a1 1 0 0 1 0 1.4l-2.7 2.7a1 1 0 0 1-1.3 0l-2.7-2.7a1 1 0 0 1 0-1.4zm6.3 6.4a1 1 0 0 1 1.4 0l2.7 2.7a1 1 0 0 1 0 1.3l-2.7 2.7a1 1 0 0 1-1.4 0l-2.7-2.7a1 1 0 0 1 0-1.3z"/></svg>

<svg fill="none" viewBox="0 0 24 24"><path stroke="currentColor" stroke-width="2" d="M11.3 2.3a1 1 0 0 1 1.4 0L15.4 5a1 1 0 0 1 0 1.3L12.7 9a1 1 0 0 1-1.4 0L8.6 6.3a1 1 0 0 1 0-1.3zm6.4 6.3a1 1 0 0 1 1.3 0l2.7 2.7a1 1 0 0 1 0 1.4L19 15.4a1 1 0 0 1-1.3 0L15 12.7a1 1 0 0 1 0-1.4zM5 8.6a1 1 0 0 1 1.3 0L9 11.3a1 1 0 0 1 0 1.4l-2.7 2.7a1 1 0 0 1-1.3 0l-2.7-2.7a1 1 0 0 1 0-1.4zm6.3 6.4a1 1 0 0 1 1.4 0l2.7 2.7a1 1 0 0 1 0 1.3l-2.7 2.7a1 1 0 0 1-1.4 0L8.6 19a1 1 0 0 1 0-1.3z"/></svg>
